src/status/symbolic/network-cellular-4g-symbolic.svg

<svg enable-background="new" version="1.1" viewBox="0 0 16 16" xmlns="http://www.w3.org/2000/svg" xmlns:osb="http://www.openswatchbook.org/uri/2009/osb">
 <g transform="translate(-321 283)">
  <g transform="matrix(.75 0 0 .85714 262.25 -485)" fill="#363636">
   <path transform="translate(81,237)" d="m1.9998 0.99998s-1.9999 0-2 2.0625v9.9375c-8.4e-5 2 2 2 2 2h12c2 0 2-2 2-2v-10s0-2-2-2zm2e-4 2h2v4h1v-4h2v4 2 4h-2v-4h-1c-2 0-2-2-2-2zm8 0h2c2 0 2 2 2 2v1h-2v-1h-2v6h2v-2h-1v-1.9688l2-0.03125 1 0.03125v1 2.9375c0 5e-5 0 2.0312-2 2.0312h-2s-2 0-2-2v-6c0-2 2-2 2-2z" color="#363636"/>
  </g>
 </g>
</svg>

<?xml version="1.0" encoding="UTF-8" standalone="no"?>
<svg
   xmlns:osb="http://www.openswatchbook.org/uri/2009/osb"
   xmlns:dc="http://purl.org/dc/elements/1.1/"
   xmlns:cc="http://creativecommons.org/ns#"
   xmlns:rdf="http://www.w3.org/1999/02/22-rdf-syntax-ns#"
   xmlns:svg="http://www.w3.org/2000/svg"
   xmlns="http://www.w3.org/2000/svg"
   xmlns:sodipodi="http://sodipodi.sourceforge.net/DTD/sodipodi-0.dtd"
   xmlns:inkscape="http://www.inkscape.org/namespaces/inkscape"
   height="16"
   version="1.1"
   width="16"
   enable-background="new"
   id="svg4141"
   inkscape:version="0.91 r13725"
   sodipodi:docname="network-cellular-4g-symbolic.svg">
  <sodipodi:namedview
     pagecolor="#ffffff"
     bordercolor="#363636"
     borderopacity="1"
     objecttolerance="10"
     gridtolerance="10"
     guidetolerance="10"
     inkscape:pageopacity="0"
     inkscape:pageshadow="2"
     inkscape:window-width="640"
     inkscape:window-height="480"
     id="namedview4152"
     showgrid="false"
     inkscape:zoom="41.1875"
     inkscape:cx="3.6783005"
     inkscape:cy="8"
     inkscape:current-layer="layer9" />
  <metadata
     id="metadata90">
    <rdf:RDF>
      <cc:Work
         rdf:about="">
        <dc:format>image/svg+xml</dc:format>
        <dc:type
           rdf:resource="http://purl.org/dc/dcmitype/StillImage" />
      </cc:Work>
    </rdf:RDF>
  </metadata>
  <defs
     id="defs7386">
    <linearGradient
       id="linearGradient5606"
       osb:paint="solid">
      <stop
         id="stop5608" />
    </linearGradient>
  </defs>
  <g
     inkscape:groupmode="layer"
     id="layer9"
     inkscape:label="status"
     transform="translate(-321.0002,283)">
    <g
       id="layer9-5"
       transform="matrix(0.75,0,0,0.85714286,262.25035,-484.99998)"
       style="fill:#363636">
      <path
         inkscape:connector-curvature="0"
         d="m 1.9998,0.99998 c 0,0 -1.999914,0 -2,2.0625 l 0,9.9375 c -8.4e-5,2 2,2 2,2 l 12,0 c 2,0 2,-2 2,-2 l 0,-10 c 0,0 0,-2 -2,-2 z M 2,3 4,3 4,7 5,7 5,3 7,3 7,7 7,9 7,13 5,13 5,9 4,9 C 2,9 2,7 2,7 Z m 8,0 2,0 c 2,0 2,2 2,2 l 0,1 -2,0 0,-1 -2,0 0,6 2,0 L 12,9 11,9 11,7.03125 13,7 l 1,0.03125 0,1 0,2.9375 C 14,10.9688 14,13 12,13 l -2,0 c 0,0 -2,0 -2,-2 L 8,5 C 8,3 10,3 10,3 Z"
         id="path1244-8"
         sodipodi:nodetypes="ccccsccsccccccccccccscccscccccccccccccsscssc"
         transform="translate(81,237)"
         style="color:#363636" />
    </g>
  </g>
</svg>
